assets/icons/actions/attach_file.svg

<svg viewBox="0 0 24 24" xmlns="http://www.w3.org/2000/svg">
<path d="M11.5 22C9.96667 22 8.66667 21.4667 7.6 20.4C6.53333 19.3333 6 18.0333 6 16.5V6C6 4.9 6.39167 3.95833 7.175 3.175C7.95833 2.39167 8.9 2 10 2C11.1 2 12.0417 2.39167 12.825 3.175C13.6083 3.95833 14 4.9 14 6V15.5C14 16.2 13.7583 16.7917 13.275 17.275C12.7917 17.7583 12.2 18 11.5 18C10.8 18 10.2083 17.7583 9.725 17.275C9.24167 16.7917 9 16.2 9 15.5V6.75C9 6.53333 9.071 6.35433 9.213 6.213C9.35433 6.071 9.53333 6 9.75 6C9.96667 6 10.146 6.071 10.288 6.213C10.4293 6.35433 10.5 6.53333 10.5 6.75V15.5C10.5 15.7833 10.596 16.0207 10.788 16.212C10.9793 16.404 11.2167 16.5 11.5 16.5C11.7833 16.5 12.021 16.404 12.213 16.212C12.4043 16.0207 12.5 15.7833 12.5 15.5V6C12.5 5.3 12.2583 4.70833 11.775 4.225C11.2917 3.74167 10.7 3.5 10 3.5C9.3 3.5 8.70833 3.74167 8.225 4.225C7.74167 4.70833 7.5 5.3 7.5 6V16.5C7.5 17.6 7.89167 18.5417 8.675 19.325C9.45833 20.1083 10.4 20.5 11.5 20.5C12.6 20.5 13.5417 20.1083 14.325 19.325C15.1083 18.5417 15.5 17.6 15.5 16.5V6.75C15.5 6.53333 15.571 6.35433 15.713 6.213C15.8543 6.071 16.0333 6 16.25 6C16.4667 6 16.646 6.071 16.788 6.213C16.9293 6.35433 17 6.53333 17 6.75V16.5C17 18.0333 16.4667 19.3333 15.4 20.4C14.3333 21.4667 13.0333 22 11.5 22Z" fill="inherit"/>
</svg>

<svg viewBox="0 0 24 24" xmlns="http://www.w3.org/2000/svg"><path d="M11.5 22c-1.5 0-2.8-.5-3.9-1.6-1-1-1.6-2.4-1.6-3.9V6c0-1.1.4-2 1.2-2.8C8 2.4 8.9 2 10 2c1.1 0 2 .4 2.8 1.2C13.6 4 14 4.9 14 6v9.5c0 .7-.2 1.3-.7 1.8-.5.5-1.1.7-1.8.7s-1.3-.2-1.8-.7c-.5-.5-.7-1.1-.7-1.8V6.7a.7.7 0 0 1 .8-.7.7.7 0 0 1 .7.8v8.7c0 .3.1.5.3.7.2.2.4.3.7.3.3 0 .5-.1.7-.3.2-.2.3-.4.3-.7V6c0-.7-.2-1.3-.7-1.8-.5-.5-1.1-.7-1.8-.7s-1.3.2-1.8.7c-.5.5-.7 1.1-.7 1.8v10.5c0 1.1.4 2 1.2 2.8.8.8 1.7 1.2 2.8 1.2 1.1 0 2-.4 2.8-1.2.8-.8 1.2-1.7 1.2-2.8V6.7a.7.7 0 0 1 .8-.7.7.7 0 0 1 .7.8v9.7c0 1.5-.5 2.8-1.6 3.9-1 1-2.4 1.6-3.9 1.6Z" fill="inherit"/></svg>
